src/assets/images/check.svg

<svg width="13" height="14" viewBox="0 0 13 14" fill="none" xmlns="http://www.w3.org/2000/svg">
<g clip-path="url(#clip0_5818_3637)">
<path fill-rule="evenodd" clip-rule="evenodd" d="M0 6.69459C0 4.93876 0.684819 3.25484 1.90381 2.01328C3.12279 0.77172 4.77609 0.0742188 6.5 0.0742188C8.22391 0.0742188 9.87721 0.77172 11.0962 2.01328C12.3152 3.25484 13 4.93876 13 6.69459C13 8.45042 12.3152 10.1343 11.0962 11.3759C9.87721 12.6175 8.22391 13.315 6.5 13.315C4.77609 13.315 3.12279 12.6175 1.90381 11.3759C0.684819 10.1343 0 8.45042 0 6.69459H0ZM6.12907 9.52811L9.87133 4.76321L9.19533 4.21239L6.00427 8.27377L3.744 6.35563L3.18933 7.03355L6.12907 9.52899V9.52811Z" fill="black"/>
</g>
<defs>
<clipPath id="clip0_5818_3637">
<rect width="13" height="13.2407" fill="white" transform="translate(0 0.0742188)"/>
</clipPath>
</defs>
</svg>

<svg xmlns="http://www.w3.org/2000/svg" width="13" height="14" fill="none"><g clip-path="url(#a)"><path fill="#000" fill-rule="evenodd" d="M0 6.695c0-1.756.685-3.44 1.904-4.682A6.44 6.44 0 0 1 6.5.074a6.44 6.44 0 0 1 4.596 1.94A6.68 6.68 0 0 1 13 6.693c0 1.756-.685 3.44-1.904 4.682a6.44 6.44 0 0 1-4.596 1.94 6.44 6.44 0 0 1-4.596-1.94A6.68 6.68 0 0 1 0 6.696m6.13 2.833 3.74-4.766-.676-.55-3.19 4.06-2.261-1.917-.555.678z" clip-rule="evenodd"/></g><defs><clipPath id="a"><path fill="#fff" d="M0 .074h13v13.241H0z"/></clipPath></defs></svg>
